public/img/CATEGORIES_ICONS/FILM_ICON.svg

<?xml version="1.0" encoding="UTF-8"?>
<svg width="92px" height="133px" viewBox="0 0 92 133" version="1.1" xmlns="http://www.w3.org/2000/svg" xmlns:xlink="http://www.w3.org/1999/xlink">
    <!-- Generator: Sketch 42 (36781) - http://www.bohemiancoding.com/sketch -->
    <title>FILM_ICON</title>
    <desc>Created with Sketch.</desc>
    <defs></defs>
    <g id="Page-1" stroke="none" stroke-width="1" fill="none" fill-rule="evenodd">
        <g id="Home" transform="translate(-726.000000, -1067.000000)">
            <g id="CATEGORIES" transform="translate(122.000000, 1066.000000)">
                <g id="FILM_ICON" transform="translate(604.000000, 0.982000)">
                    <polygon id="Fill-56" fill="#00B1B0" points="2.2271 25.0183 45.5281 0.0183 88.8301 25.0183 88.8301 75.0183 45.5281 100.0183 2.2271 75.0183"></polygon>
                    <path d="M63.291,46.2268 C62.33,46.2268 61.551,45.4478 61.551,44.4858 C61.551,43.5248 62.33,42.7458 63.291,42.7458 C64.253,42.7458 65.032,43.5248 65.032,44.4858 C65.032,45.4478 64.253,46.2268 63.291,46.2268 M45.529,64.5518 C38.898,64.5518 33.522,59.1758 33.522,52.5438 C33.522,45.9128 38.898,40.5368 45.529,40.5368 C52.16,40.5368 57.534,45.9128 57.534,52.5438 C57.534,59.1758 52.16,64.5518 45.529,64.5518 M65.808,37.9278 L59.731,37.9278 C58.898,37.9278 56.277,37.9808 56.277,34.1248 C56.277,30.2698 52.851,30.7528 52.851,30.7528 L45.529,30.7528 L38.207,30.7528 C38.207,30.7528 34.779,30.2698 34.779,34.1248 C34.779,37.9808 32.157,37.9278 31.326,37.9278 L25.249,37.9278 C23.91,37.9278 21.434,39.2658 21.434,44.3528 L21.434,65.1808 C21.434,66.5728 23.59,69.3038 26.32,69.3038 L45.529,69.3038 L64.736,69.3038 C67.469,69.3038 69.623,66.5728 69.623,65.1808 L69.623,44.3528 C69.623,39.2658 67.147,37.9278 65.808,37.9278" id="Fill-57" fill="#FEFEFE"></path>
                    <path d="M45.5293,45.3557 C41.5643,45.3557 38.3403,48.5817 38.3403,52.5447 C38.3403,56.5077 41.5643,59.7317 45.5293,59.7317 C49.4923,59.7317 52.7173,56.5077 52.7173,52.5447 C52.7173,48.5817 49.4923,45.3557 45.5293,45.3557" id="Fill-58" fill="#FEFEFE"></path>
                    <polygon id="Fill-59" fill="#00B1B0" points="26.0403 109.0229 30.9333 109.0229 30.9333 110.3549 27.5873 110.3549 27.5873 112.7649 30.4053 112.7649 30.4053 114.0959 27.5873 114.0959 27.5873 117.5389 26.0403 117.5389"></polygon>
                    <polygon id="Fill-60" fill="#00B1B0" points="32.388 117.539 33.935 117.539 33.935 109.023 32.388 109.023"></polygon>
                    <polygon id="Fill-61" fill="#00B1B0" points="36.0959 109.0229 37.6429 109.0229 37.6429 116.2079 41.3249 116.2079 41.3249 117.5389 36.0959 117.5389"></polygon>
                    <path d="M42.9954,109.0229 L44.6494,109.0229 L46.3174,113.2329 C46.5094,113.7369 46.7494,114.4799 46.7494,114.4799 L46.7724,114.4799 C46.7724,114.4799 47.0014,113.7369 47.1924,113.2329 L48.8594,109.0229 L50.5154,109.0229 L51.1984,117.5389 L49.6634,117.5389 L49.3044,112.7769 C49.2674,112.2129 49.2914,111.4579 49.2914,111.4579 L49.2674,111.4579 C49.2674,111.4579 49.0164,112.2859 48.8114,112.7769 L47.4324,116.0759 L46.0774,116.0759 L44.7104,112.7769 C44.5064,112.2859 44.2424,111.4459 44.2424,111.4459 L44.2184,111.4459 C44.2184,111.4459 44.2424,112.2129 44.2064,112.7769 L43.8474,117.5389 L42.2994,117.5389 L42.9954,109.0229 Z" id="Fill-62" fill="#00B1B0"></path>
                    <path d="M58.5217,116.2671 C59.4817,116.2671 60.0567,115.7401 60.0567,114.7081 L60.0567,113.7851 L58.6187,113.7851 C57.6697,113.7851 57.0587,114.2041 57.0587,115.0321 C57.0587,115.7151 57.6467,116.2671 58.5217,116.2671 M56.9267,113.0051 L56.9267,112.9811 C56.9267,112.9811 55.8477,112.5611 55.8477,111.1221 C55.8477,109.6111 57.0587,108.8791 58.5347,108.8791 C59.0737,108.8791 59.6497,109.0231 59.6497,109.0231 L59.2777,110.2461 C59.2777,110.2461 58.9897,110.1741 58.7137,110.1741 C57.9947,110.1741 57.4067,110.5711 57.4067,111.3141 C57.4067,111.8061 57.6827,112.4411 58.7027,112.4411 L60.0567,112.4411 L60.0567,111.3381 L61.5807,111.3381 L61.5807,112.4411 L62.6837,112.4411 L62.6837,113.7851 L61.5807,113.7851 L61.5807,114.7921 C61.5807,116.5311 60.4407,117.6821 58.5217,117.6821 C56.6747,117.6821 55.4757,116.5671 55.4757,115.1271 C55.4757,114.2041 56.0277,113.3171 56.9267,113.0051" id="Fill-63" fill="#00B1B0"></path>
                    <path d="M3.7844,127.6577 C4.6834,127.6577 5.2114,127.0817 5.2114,126.1937 C5.2114,125.3187 4.6834,124.7557 3.8074,124.7557 L2.3334,124.7557 L2.3334,127.6577 L3.7844,127.6577 Z M0.7864,123.4237 L4.0724,123.4237 C5.6674,123.4237 6.7824,124.5387 6.7824,126.1937 C6.7824,127.8487 5.6674,129.0007 4.0724,129.0007 L2.3334,129.0007 L2.3334,131.9387 L0.7864,131.9387 L0.7864,123.4237 Z" id="Fill-64" fill="#00B1B0"></path>
                    <polygon id="Fill-65" fill="#00B1B0" points="8.1545 123.4233 9.7015 123.4233 9.7015 127.0333 13.5985 127.0333 13.5985 123.4233 15.1465 123.4233 15.1465 131.9393 13.5985 131.9393 13.5985 128.3643 9.7015 128.3643 9.7015 131.9393 8.1545 131.9393"></polygon>
                    <path d="M21.1233,130.6675 C22.6833,130.6675 23.9303,129.3725 23.9303,127.6215 C23.9303,125.9415 22.6833,124.6945 21.1233,124.6945 C19.5643,124.6945 18.3173,125.9415 18.3173,127.6215 C18.3173,129.3725 19.5643,130.6675 21.1233,130.6675 M21.1233,123.2795 C23.6303,123.2795 25.5253,125.1875 25.5253,127.6215 C25.5253,130.1285 23.6303,132.0825 21.1233,132.0825 C18.6173,132.0825 16.7223,130.1285 16.7223,127.6215 C16.7223,125.1875 18.6173,123.2795 21.1233,123.2795" id="Fill-66" fill="#00B1B0"></path>
                    <polygon id="Fill-67" fill="#00B1B0" points="28.7932 124.7554 25.9982 124.7554 25.9982 123.4234 33.1352 123.4234 33.1352 124.7554 30.3402 124.7554 30.3402 131.9394 28.7932 131.9394"></polygon>
                    <path d="M38.0071,130.6675 C39.5671,130.6675 40.8141,129.3725 40.8141,127.6215 C40.8141,125.9415 39.5671,124.6945 38.0071,124.6945 C36.4481,124.6945 35.2011,125.9415 35.2011,127.6215 C35.2011,129.3725 36.4481,130.6675 38.0071,130.6675 M38.0071,123.2795 C40.5141,123.2795 42.4091,125.1875 42.4091,127.6215 C42.4091,130.1285 40.5141,132.0825 38.0071,132.0825 C35.5011,132.0825 33.6061,130.1285 33.6061,127.6215 C33.6061,125.1875 35.5011,123.2795 38.0071,123.2795" id="Fill-68" fill="#00B1B0"></path>
                    <path d="M47.7991,123.2798 C49.8861,123.2798 50.9661,124.3588 50.9661,124.3588 L50.1981,125.5098 C50.1981,125.5098 49.2861,124.6948 47.9321,124.6948 C46.0251,124.6948 45.0051,126.0138 45.0051,127.6218 C45.0051,129.4678 46.2641,130.6678 47.8601,130.6678 C49.1431,130.6678 49.9941,129.7798 49.9941,129.7798 L49.9941,128.7848 L48.6871,128.7848 L48.6871,127.4538 L51.3861,127.4538 L51.3861,131.9388 L50.0671,131.9388 L50.0671,131.5308 C50.0671,131.3508 50.0781,131.1718 50.0781,131.1718 L50.0541,131.1718 C50.0541,131.1718 49.1671,132.0828 47.5831,132.0828 C45.3411,132.0828 43.4101,130.3438 43.4101,127.6698 C43.4101,125.1988 45.2691,123.2798 47.7991,123.2798" id="Fill-69" fill="#00B1B0"></path>
                    <path d="M56.0442,127.4175 C56.8712,127.4175 57.3872,126.9255 57.3872,126.0735 C57.3872,125.2585 57.0392,124.7555 55.8282,124.7555 L54.6522,124.7555 L54.6522,127.4175 L56.0442,127.4175 Z M53.1062,123.4235 L55.8522,123.4235 C56.7752,123.4235 57.1952,123.4955 57.5672,123.6635 C58.4192,124.0475 58.9582,124.8625 58.9582,125.9895 C58.9582,127.0095 58.4192,127.9575 57.5202,128.3165 L57.5202,128.3415 C57.5202,128.3415 57.6392,128.4605 57.8072,128.7605 L59.5582,131.9385 L57.8312,131.9385 L56.1402,128.7605 L54.6522,128.7605 L54.6522,131.9385 L53.1062,131.9385 L53.1062,123.4235 Z" id="Fill-70" fill="#00B1B0"></path>
                    <path d="M63.7366,124.8989 C63.7366,124.8989 63.5446,125.7389 63.3766,126.2179 L62.6216,128.4969 L64.8516,128.4969 L64.0956,126.2179 C63.9396,125.7389 63.7596,124.8989 63.7596,124.8989 L63.7366,124.8989 Z M65.2356,129.7559 L62.2496,129.7559 L61.5296,131.9389 L59.9346,131.9389 L62.9326,123.4229 L64.5516,123.4229 L67.5496,131.9389 L65.9556,131.9389 L65.2356,129.7559 Z" id="Fill-71" fill="#00B1B0"></path>
                    <path d="M71.6438,127.6577 C72.5428,127.6577 73.0718,127.0817 73.0718,126.1937 C73.0718,125.3187 72.5428,124.7557 71.6678,124.7557 L70.1928,124.7557 L70.1928,127.6577 L71.6438,127.6577 Z M68.6458,123.4237 L71.9318,123.4237 C73.5278,123.4237 74.6428,124.5387 74.6428,126.1937 C74.6428,127.8487 73.5278,129.0007 71.9318,129.0007 L70.1928,129.0007 L70.1928,131.9387 L68.6458,131.9387 L68.6458,123.4237 Z" id="Fill-72" fill="#00B1B0"></path>
                    <polygon id="Fill-73" fill="#00B1B0" points="76.0139 123.4233 77.5609 123.4233 77.5609 127.0333 81.4589 127.0333 81.4589 123.4233 83.0059 123.4233 83.0059 131.9393 81.4589 131.9393 81.4589 128.3643 77.5609 128.3643 77.5609 131.9393 76.0139 131.9393"></polygon>
                    <path d="M86.9446,128.3765 L84.1146,123.4235 L85.8656,123.4235 L87.1966,125.9305 C87.4726,126.4575 87.7006,127.0815 87.7126,127.0695 L87.7366,127.0695 C87.7366,127.0695 87.9756,126.4575 88.2526,125.9305 L89.5716,123.4235 L91.3226,123.4235 L88.4916,128.3765 L88.4916,131.9395 L86.9446,131.9395 L86.9446,128.3765 Z" id="Fill-74" fill="#00B1B0"></path>
                </g>
            </g>
        </g>
    </g>
</svg>

<svg width="92" height="133" viewBox="0 0 92 133" xmlns="http://www.w3.org/2000/svg"><title>FILM_ICON</title><g fill="none" fill-rule="evenodd"><path fill="#00B1B0" d="M2.227 25L45.528 0 88.83 25v50l-43.302 25-43.3-25z"/><path d="M63.291 46.209a1.74 1.74 0 1 1 0-3.48 1.74 1.74 0 0 1 0 3.48M45.529 64.534c-6.631 0-12.007-5.376-12.007-12.008 0-6.631 5.376-12.007 12.007-12.007 6.631 0 12.005 5.376 12.005 12.007 0 6.632-5.374 12.008-12.005 12.008M65.808 37.91h-6.077c-.833 0-3.454.053-3.454-3.803 0-3.855-3.426-3.372-3.426-3.372H38.207s-3.428-.483-3.428 3.372c0 3.856-2.622 3.803-3.453 3.803h-6.077c-1.339 0-3.815 1.338-3.815 6.425v20.828c0 1.392 2.156 4.123 4.886 4.123h38.416c2.733 0 4.887-2.731 4.887-4.123V44.335c0-5.087-2.476-6.425-3.815-6.425" fill="#FEFEFE"/><path d="M45.53 45.338c-3.966 0-7.19 3.226-7.19 7.189s3.224 7.187 7.19 7.187c3.962 0 7.187-3.224 7.187-7.187s-3.225-7.19-7.188-7.19" fill="#FEFEFE"/><path fill="#00B1B0" d="M26.04 109.005h4.893v1.332h-3.346v2.41h2.818v1.33h-2.818v3.444H26.04zM32.388 117.521h1.547v-8.516h-1.547zM36.096 109.005h1.547v7.185h3.682v1.33h-5.23zM42.995 109.005h1.654l1.668 4.21c.192.504.432 1.247.432 1.247h.023s.23-.743.42-1.247l1.667-4.21h1.656l.683 8.516h-1.535l-.359-4.762c-.037-.564-.013-1.32-.013-1.32h-.024s-.25.829-.456 1.32l-1.379 3.299h-1.355l-1.367-3.3a20.65 20.65 0 0 1-.468-1.33h-.024s.024.767-.012 1.33l-.359 4.763H42.3l.696-8.516zM58.522 116.25c.96 0 1.535-.528 1.535-1.56v-.923h-1.438c-.95 0-1.56.42-1.56 1.247 0 .683.588 1.235 1.463 1.235m-1.595-3.262v-.024s-1.08-.42-1.08-1.859c0-1.51 1.212-2.243 2.688-2.243.539 0 1.115.144 1.115.144l-.372 1.223s-.288-.072-.564-.072c-.72 0-1.307.397-1.307 1.14 0 .492.276 1.127 1.296 1.127h1.354v-1.103h1.524v1.103h1.103v1.344H61.58v1.007c0 1.74-1.14 2.89-3.06 2.89-1.846 0-3.045-1.115-3.045-2.555 0-.923.552-1.81 1.45-2.122M3.784 127.64c.9 0 1.427-.576 1.427-1.464 0-.875-.528-1.438-1.404-1.438H2.333v2.902h1.451zm-2.998-4.234h3.286c1.595 0 2.71 1.115 2.71 2.77s-1.115 2.807-2.71 2.807H2.333v2.938H.786v-8.515zM8.155 123.405H9.7v3.61h3.897v-3.61h1.548v8.516h-1.548v-3.575H9.701v3.575H8.155zM21.123 130.65c1.56 0 2.807-1.296 2.807-3.047 0-1.68-1.247-2.926-2.807-2.926-1.559 0-2.806 1.246-2.806 2.926 0 1.752 1.247 3.046 2.806 3.046m0-7.388c2.507 0 4.402 1.909 4.402 4.343 0 2.507-1.895 4.46-4.402 4.46-2.506 0-4.4-1.953-4.4-4.46 0-2.434 1.894-4.343 4.4-4.343M28.793 124.737h-2.795v-1.332h7.137v1.332H30.34v7.184h-1.547zM38.007 130.65c1.56 0 2.807-1.296 2.807-3.047 0-1.68-1.247-2.926-2.807-2.926-1.559 0-2.806 1.246-2.806 2.926 0 1.752 1.247 3.046 2.806 3.046m0-7.388c2.507 0 4.402 1.909 4.402 4.343 0 2.507-1.895 4.46-4.402 4.46-2.506 0-4.4-1.953-4.4-4.46 0-2.434 1.894-4.343 4.4-4.343M47.8 123.262c2.086 0 3.166 1.079 3.166 1.079l-.768 1.15s-.912-.814-2.266-.814c-1.907 0-2.927 1.319-2.927 2.927 0 1.846 1.26 3.046 2.855 3.046 1.283 0 2.134-.888 2.134-.888v-.995h-1.307v-1.331h2.7v4.485h-1.32v-.408c0-.18.011-.36.011-.36h-.024s-.887.912-2.47.912c-2.243 0-4.174-1.74-4.174-4.413 0-2.471 1.86-4.39 4.39-4.39M56.044 127.4c.827 0 1.343-.493 1.343-1.345 0-.815-.348-1.318-1.559-1.318h-1.176v2.663h1.392zm-2.938-3.995h2.746c.923 0 1.343.073 1.715.24.852.385 1.391 1.2 1.391 2.327 0 1.02-.539 1.968-1.438 2.326v.025s.12.12.287.42l1.751 3.178h-1.727l-1.69-3.178h-1.489v3.178h-1.546v-8.515zM63.737 124.88s-.192.84-.36 1.32l-.755 2.279h2.23l-.756-2.28c-.156-.478-.336-1.318-.336-1.318h-.023zm1.499 4.858H62.25l-.72 2.183h-1.595l2.998-8.516h1.619l2.998 8.516h-1.594l-.72-2.183zM71.644 127.64c.899 0 1.428-.576 1.428-1.464 0-.875-.53-1.438-1.404-1.438h-1.475v2.902h1.45zm-2.998-4.234h3.286c1.596 0 2.71 1.115 2.71 2.77s-1.114 2.807-2.71 2.807h-1.74v2.938h-1.546v-8.515zM76.014 123.405h1.547v3.61h3.898v-3.61h1.547v8.516h-1.547v-3.575H77.56v3.575h-1.547zM86.945 128.358l-2.83-4.953h1.75l1.332 2.507c.276.527.504 1.151.516 1.14h.024s.239-.613.516-1.14l1.319-2.507h1.75l-2.83 4.953v3.564h-1.547v-3.564z"/></g></svg>
